X: 261
T: Jimmy's Return
R: reel
M: 4/4
L: 1/8
K: Bmin
ggg|f2Bc dfed|cAce aece|f2Bc dfed|cdec dB B2|
f2Bc dfed|cAce aecA|BcdB cdeg |1fgec d :|2fgec dBBA||
B2ba f2ed|cAce aecA|B2ba faed|cdec dBBA|
B2ba f2ed|cAce aecA|BcdB cdeg|1fgec dBBA:|2fgec dggg||

